X: 21282
T: CARLE NOW THE KING'S COME
%R: march
B: "Edinburgh Repository of Music" v.2 p.128 #2
F: http://digital.nls.uk/special-collections-of-printed-music/pageturner.cfm?id=87776133
Z: 2015 John Chambers <jc:trillian.mit.edu>
M: C|
L: 1/8
K: G
|:\
B2A>G G3{B}A | G4 D4 | c2A2 A2B2 | G4 E4 |\
D3E G2G2 | A2B2 g2fe | d2ef g2B2 |[1{A}A4 G4 :|[2 A4 G2 |]
ga |\
b2{b}ag g3a | bage dega | b2a2 a3b | abag {f}e3g |\
d3e g3a | bage g3a | g/a/b G2 ABcB | {B2}A4 G2 |]

%%sep 2 1 500
%%sep 1 1 500

